Images/smutz.svg

<svg width="144" height="103" viewBox="0 0 144 103" fill="none" xmlns="http://www.w3.org/2000/svg">
<g clip-path="url(#clip0_1546_689)">
<path d="M2.69319 33.4764C2.91084 45.8385 -1.60532 57.8725 0.598349 70.2621C2.39393 80.3542 8.8961 89.325 19.3703 91.1848C31.5857 93.3454 44.9981 90.0361 56.4517 85.8242C67.9054 81.6123 78.434 76.662 87.8472 69.7151C97.2604 62.7682 104.524 54.4538 107.898 43.5138C110.999 33.4217 110.237 21.7159 103.817 13.0733C97.7773 4.92299 88.0648 0.629043 78.1347 0.054694C67.4157 -0.547005 57.1319 3.80164 48.8341 10.3383C32.81 22.974 21.8732 44.5531 24.485 65.2844C25.7909 75.5406 30.6607 84.7029 38.7952 91.1028C47.7459 98.1043 59.0091 101.304 70.1634 102.535C92.0641 104.942 116.767 97.9949 132.791 82.3781C140.245 75.103 145.523 65.0929 143.646 54.4264C141.878 44.4163 134.043 36.2934 124.874 32.5738C113.965 28.1431 101.559 30.2217 91.1935 35.09C82.0523 39.384 72.7752 47.0419 70.9796 57.5717C69.4289 66.6245 74.8972 77.291 84.256 79.397C89.8876 80.6551 95.0295 78.0295 99.4912 74.8569C104.307 71.4108 108.877 67.5818 113.067 63.3972C117.257 59.2127 120.793 54.8914 124.194 50.2419C127.296 45.9753 120.222 41.8728 117.148 46.112C111.435 53.9341 104.524 60.9904 96.7707 66.7613C93.642 69.086 89.3979 72.7236 85.2354 71.1646C82.134 70.0159 80.0119 66.816 79.1957 63.6981C77.0465 55.4657 84.6097 48.3274 90.9214 44.5258C99.3008 39.4934 109.802 36.7037 119.433 39.384C126.942 41.4626 133.634 47.4795 135.484 55.2469C137.498 63.7801 132.193 71.7937 126.262 77.3457C112.876 89.872 93.1523 95.5608 75.1693 94.7676C58.1385 94.0292 38.2511 87.1917 33.4357 68.8672C29.1372 52.5666 36.5643 34.543 47.6099 22.6458C58.6554 10.7485 77.4002 2.68029 92.3905 13.1553C99.5184 18.133 102.293 26.7756 101.368 35.1994C100.389 44.3069 95.4104 52.2384 88.881 58.3922C82.3516 64.5459 73.7274 69.3322 65.348 73.2979C55.7988 77.8107 45.6511 81.5303 35.1496 83.0072C26.2262 84.2379 15.7792 84.7302 10.9365 75.6774C6.58361 67.5544 8.16155 57.9546 9.46742 49.312C10.2564 44.0882 10.9909 38.8643 10.8821 33.5584C10.7733 28.2525 2.61157 28.2799 2.7204 33.5584L2.69319 33.4764Z" fill="#E53914"/>
</g>
<defs>
<clipPath id="clip0_1546_689">
<rect width="144" height="103" fill="white"/>
</clipPath>
</defs>
</svg>

<svg xmlns="http://www.w3.org/2000/svg" width="144" height="103" fill="none" viewBox="0 0 144 103"><g clip-path="url(#a)"><path fill="#e53914" d="M2.7 33.48c.2 12.36-4.3 24.4-2.1 36.78 1.8 10.1 8.3 19.06 18.77 20.92 12.22 2.17 25.63-1.14 37.08-5.36 11.46-4.2 21.98-9.16 31.4-16.1s16.67-15.27 20.05-26.2c3.1-10.1 2.34-21.8-4.08-30.45C97.78 4.92 88.06.63 78.13.05c-10.71-.6-21 3.75-29.3 10.29C32.81 22.97 21.87 44.55 24.5 65.28c1.3 10.26 6.17 19.42 14.3 25.82 8.96 7 20.22 10.2 31.37 11.44 21.9 2.4 46.6-4.55 62.63-20.16 7.46-7.28 12.73-17.29 10.86-27.95-1.77-10.01-9.6-18.14-18.78-21.86-10.9-4.43-23.31-2.35-33.68 2.52-9.14 4.3-18.41 11.95-20.21 22.48-1.55 9.05 3.92 19.72 13.28 21.83 5.63 1.26 10.77-1.37 15.23-4.54 4.82-3.45 9.39-7.28 13.58-11.46s7.72-8.5 11.12-13.16c3.1-4.26-3.97-8.37-7.04-4.13a98 98 0 0 1-20.38 20.65c-3.13 2.33-7.37 5.96-11.53 4.4-3.1-1.14-5.23-4.34-6.04-7.46-2.15-8.23 5.41-15.37 11.72-19.17 8.38-5.04 18.88-7.83 28.51-5.15 7.51 2.08 14.2 8.1 16.05 15.87 2.02 8.53-3.29 16.54-9.22 22.1-13.38 12.52-33.1 18.21-51.1 17.42-17.02-.74-36.9-7.58-41.72-25.9-4.3-16.3 3.12-34.33 14.17-46.22s29.79-19.97 44.78-9.5c7.13 4.98 9.9 13.63 8.98 22.05-.98 9.1-5.96 17.04-12.49 23.2S73.73 69.32 65.35 73.3c-9.55 4.51-19.7 8.23-30.2 9.7-8.92 1.24-19.37 1.73-24.21-7.32-4.36-8.13-2.78-17.73-1.47-26.37.79-5.22 1.52-10.45 1.41-15.75-.1-5.3-8.27-5.28-8.16 0z"/></g><defs><clipPath id="a"><path fill="#fff" d="M0 0h144v103H0z"/></clipPath></defs></svg>
